svg/u1faf1_1f3fc_200d_1faf2_1f3ff.svg

<svg viewBox="0 0 128 128" xmlns="http://www.w3.org/2000/svg" xmlns:xlink="http://www.w3.org/1999/xlink">
  <g>
    <path d="M10.1,23.35c-3.73,2.85-5.65,10.81-6.05,22.07C3.65,56.68,5.77,62.8,6.51,64.65s6.3,4.61,12.56,9.45 c4.59,3.55,40.63,28.64,44.9,30.59c6.79,3.09,11.11-3.16,11.11-3.16s3.6,2.06,7.08,0c4.25-2.52,3.75-5.65,3.75-5.65 s4.38,1.01,6.61-0.96c2.23-1.97,3.22-6.7,3.22-6.7s2.95,1.34,5.45-0.89c2.5-2.23,4.4-5.25,1.75-9.37 c-2.65-4.12-13.43-17.1-16.23-20.74c-2.8-3.64-10-24.4-16.93-26.47s-13.77-1.54-21.01,0.6s-14.01,1.94-22.05-0.34 S10.1,23.35,10.1,23.35z" fill="#E0BB95"/>
    <path d="M123.31,41c-1.48-9.85-3.43-16.55-4.88-18.17c-1.66-1.84-4.51,1.82-10.54,3.96 C101.86,28.93,91,29.74,91,29.74s-17.47-0.51-24.01,1.69c-2.46,0.82-26.73,11.05-27.46,15.34c-0.31,1.82,1.71,5.89,6.73,6.3 c8.15,0.67,18.34-6.43,18.34-6.43c0.12-0.2,1.33-0.54,6.9-0.54c5.57,0,12.04,3.65,12.45,4.33c4.16,6.85,8.11,11.65,11.92,16.29 c2.79,3.39,9.35,12.36,9.35,12.36s7.37-8.71,9.25-10.72c1.88-2.01,8.85-7.1,8.85-7.1S124.86,51.3,123.31,41z" fill="#70534A"/>
    <path d="M26.59,85.83c0,0-2.66,0.94-5.09-2.55s-0.4-5.89,2.08-7.84s5.76-2.89,7.71-1.41 c1.94,1.47,2.75,4.02,2.75,4.02s4.02-3.28,7.64-1.27c3.62,2.01,3.39,5.67,3.39,5.67s3.51-2.13,7.2,0c3.69,2.13,1.88,8.27,1.88,8.27 s4.29,0.13,5.09,4.36c0.8,4.22-0.2,8.71-5.03,9.52c-4.82,0.8-7.64-3.72-7.64-3.72s-4.82,2.91-8.38,0.51 c-3.56-2.4-3.15-7.44-3.15-7.44s-4.35,0.72-6.8-1.56S26.59,85.83,26.59,85.83z" fill="#70534A"/>
    <g>
      <path d="M78.35,103.68c-0.96,0-1.9-0.15-2.78-0.46c-2.26-0.79-11.01-7.45-12.51-9.76 c-0.43-0.67-0.24-1.56,0.42-1.99c0.67-0.43,1.56-0.24,1.99,0.42c1.04,1.6,9.2,7.96,11.05,8.61c1.66,0.58,3.79,0.28,5.41-0.76 c1.03-0.67,2.31-1.93,2.5-4.14c0.07-0.79,0.77-1.38,1.56-1.31c0.79,0.07,1.38,0.77,1.31,1.56c-0.23,2.63-1.58,4.87-3.8,6.31 C81.96,103.16,80.13,103.68,78.35,103.68z" fill="#AA7D55"/>
      <path d="M88.84,97.16c-1.97,0-4.09-0.62-6.65-1.93c-3.15-1.6-7.3-5.71-10.33-8.7 c-0.61-0.6-1.16-1.15-1.63-1.6c-0.57-0.55-0.59-1.46-0.04-2.04s1.46-0.59,2.04-0.04c0.48,0.46,1.04,1.01,1.66,1.63 c2.73,2.7,6.86,6.78,9.61,8.18c3.47,1.77,5.25,1.75,6.55,1.5c2.38-0.47,3.86-2.7,3.85-5.84c0-0.8,0.64-1.44,1.44-1.44 c0,0,0,0,0,0c0.79,0,1.44,0.64,1.44,1.44c0.01,4.53-2.42,7.94-6.18,8.68C90.02,97.11,89.43,97.16,88.84,97.16z" fill="#AA7D55"/>
      <path d="M97.11,90.09c-0.77,0-1.55-0.13-2.3-0.42c-4.05-1.58-9.45-6.56-16.51-15.23 c-0.5-0.62-0.41-1.53,0.21-2.03c0.62-0.5,1.53-0.41,2.03,0.21c6.64,8.16,11.79,12.99,15.32,14.36c1.77,0.69,4.4-0.31,5.98-2.27 c0.74-0.92,1.8-2.75,0.52-4.7c-2.83-4.31-5.69-7.79-8.72-11.47c-3.88-4.72-7.89-9.6-12.16-16.62c-0.41-0.68-0.2-1.57,0.48-1.98 c0.68-0.41,1.57-0.2,1.98,0.48c4.16,6.85,8.11,11.65,11.92,16.29c3.08,3.74,5.98,7.28,8.9,11.72c1.65,2.5,1.39,5.53-0.69,8.1 C102.47,88.5,99.8,90.09,97.11,90.09z" fill="#AA7D55"/>
      <path d="M104.63,78.24l-1.47-2.16c1.12,0.6,3.67,0.14,6.9-4.41c2.05-2.89,5.88-8.72,13.16-11.75 c0,0,0.55,2.76-1.09,3.88c-4.94,3.4-8.05,7.18-9.72,9.54c-2.74,3.87-5.26,6.19-6.7,7.35C105.71,80.69,105.53,79.53,104.63,78.24z " fill="#3B251F"/>
      <path d="M68.22,106.68c-3.59,0-7.06-1.88-8.81-2.83c-0.29-0.16-0.54-0.29-0.75-0.4l2.13-4.86 c0,0,0.52,2.9,2.72,4.04c3.62,1.89,6.87,2.16,9.51-1.34l2.3,1.74C73.25,105.78,70.7,106.68,68.22,106.68z" fill="#AA7D55"/>
      <path d="M20.67,77.56c-3.3-3.48-7.35-6.78-11.81-9.66c-0.22-0.14-1.43-0.92-2.02-1.97 c-0.92-1.63-0.7-3.02-0.7-3.02c6.33,3.52,12.13,7.93,16.62,12.67L20.67,77.56z" fill="#AA7D55"/>
      <path d="M39.59,34.35c-11.86,0-22.81-4.54-30.68-9.82c0,0,0.41-0.83,1.19-1.18 c1.09-0.49,1.93-0.22,2.05-0.15c7.31,4.54,17,8.26,27.43,8.26c0.02,0,0.04,0,0.07,0c2.99,0,7.01-1.2,9.41-1.91 c0.45-0.13,0.85-0.25,1.2-0.35c5.9-1.67,12.25-1.65,21.23,0.05l-0.54,2.83c-8.51-1.61-14.47-1.64-19.91-0.11 c-0.33,0.09-0.72,0.21-1.16,0.34c-2.55,0.76-6.82,2.03-10.22,2.03C39.64,34.35,39.61,34.35,39.59,34.35z" fill="#AA7D55"/>
      <path d="M99.62,58.85c-0.06,0-0.11,0-0.17-0.01c-10.58-1.23-15.89-5.33-19.4-8.04 c-1.73-1.33-3.09-2.39-4.39-2.58c-3.68-0.56-7.32-0.96-11.24,0.18c-0.37,0.11-1.47,0.63-2.65,1.19 c-3.61,1.71-9.06,4.3-13.07,4.72c-3.12,0.33-5.91-0.46-7.86-2.21c-1.58-1.42-2.48-3.38-2.48-5.38c0-3.51,4.44-5.58,7.37-6.94 c1.61-0.75,3.8-1.98,6.11-3.28c4.04-2.27,8.62-4.85,11.98-5.91c5.52-1.74,20.07-2.26,24.73-2.31c10.45-0.1,19.04-3.03,25.57-6.39 c0.27-0.14,1.46-0.76,2.5-0.5c1.45,0.36,1.81,1.45,1.81,1.45c-7.13,4.25-16.87,8.21-29.84,8.34c-5.72,0.05-19.08,0.66-23.88,2.17 c-3.08,0.97-7.52,3.47-11.44,5.68c-2.36,1.33-4.59,2.59-6.31,3.38c-1.71,0.79-5.71,2.65-5.71,4.33c0,1.18,0.56,2.36,1.52,3.24 c1.33,1.2,3.34,1.73,5.63,1.49c3.52-0.37,8.91-2.93,12.14-4.46c1.63-0.78,2.51-1.19,3.08-1.35c4.85-1.42,9.44-0.73,12.47-0.27 c2.03,0.31,3.74,1.63,5.72,3.15c3.46,2.67,8.19,6.32,17.98,7.46c0.79,0.09,1.36,0.81,1.27,1.6 C100.97,58.31,100.35,58.85,99.62,58.85z" fill="#3B251F"/>
      <path d="M60.29,101.26c1.22-2.26,1.52-4.86,0.72-7c-0.58-1.56-1.97-3.52-5.21-4.47 c0.03-0.06,0.06-0.11,0.09-0.16l-0.09-0.05c0.43-1.31,0.53-2.56,0.33-4.06c-0.32-2.36-1.68-4.13-3.83-4.96 c-1.82-0.71-4.02-0.65-5.78,0.07c-0.19-2.05-1.17-3.51-3.06-4.66c-3.78-2.3-6.6-0.8-8.33,0.2c-0.77-2.21-2.68-3.3-3.89-3.79 c-1.44-0.58-4.96-1.33-9.15,2.41l2.14,1.96c2.89-2.46,5.05-2.06,5.94-1.7c2.3,0.92,2.22,2.63,2.21,3.42 c-0.01,0.78-0.13,1.61-2.04,3.38c-2.36,2.19-4.03,2.2-4.03,2.2c-1.69,0.2-3.2-1.08-3.89-2.35c-0.24-0.45-0.95-1.99-0.01-3.1 c0.22-0.25,0.67-0.95,2.2-2.15l-2.11-2c-0.92,0.76-2.07,2.04-2.29,2.29c-1.41,1.66-1.53,4.09-0.32,6.33 c1,1.87,3.02,3.63,5.49,3.87c-0.18,2.4,0.67,4.62,2.48,6.37c1.94,1.88,4.35,2.08,6.03,1.93c0.02,1.68,0.39,4.04,2.03,5.73 c3.26,3.35,7.33,2.5,9.97,1.09c0.95,1.93,2.66,3.31,4.83,3.82c0.61,0.14,1.23,0.21,1.84,0.21c2.28,0,5.23,0,8.13-5.67 c-0.9-0.56-1.76-1-2.52-1.45c-2.21,4.38-5.14,4.49-6.8,4.1c-1.51-0.36-2.62-1.38-3.13-2.85c2.41-2.7,4.11-4.83,6-7.84 c2.14,0.45,3.51,1.42,4.06,2.9c0.48,1.29,0.29,2.95-0.45,4.43L60.29,101.26z M34.97,92.08c-0.03,0.01-3.11,1.07-5.11-0.86 c-1.33-1.29-1.85-2.85-1.54-4.63c3.62-2.57,6.75-6.59,7.4-7.46c0.23-0.12,3.3-2.55,6.24-0.71c1.36,0.85,1.91,2.81,1.63,4.19 c-0.28,1.38-0.92,3.05-3.56,5.87C37.45,91.23,34.97,92.08,34.97,92.08z M52.74,89.51c-0.67,1.32-2.75,5.7-7.07,9.26 c-0.49,0.4-4.62,3.3-7.68,0.16c-1.1-1.13-1.27-3.07-1.21-4.33c2.05-1.61,6.13-5.21,9.29-10.36c1.23-1.39,3.62-1.62,5.19-1.01 c1.16,0.45,1.84,1.34,2.01,2.66C53.44,87.11,53.41,88.19,52.74,89.51z" fill="#3B251F"/>
    </g>
    <path d="M92.67,62.79c0,0-0.8-2.11,0.54-3.3c1.57-1.4,3.33-0.9,4.55-0.88c0,0-2.37-0.62-5.39-1.83 c-3.75-1.51-6.33-3.38-6.33-3.38s0.67,1.34,2.75,4.49C90.86,61.04,92.67,62.79,92.67,62.79z" fill="#3B251F"/>
  </g>
</svg>

<svg viewBox="0 0 128 128" xmlns="http://www.w3.org/2000/svg">
  <defs/>
  <path d="M10.1,23.35 C6.37,26.2 4.45,34.16 4.05,45.42 C3.65,56.68 5.77,62.8 6.51,64.65 C7.25,66.5 12.81,69.26 19.07,74.1 C23.66,77.65 59.7,102.74 63.97,104.69 C70.76,107.78 75.08,101.53 75.08,101.53 C75.08,101.53 78.68,103.59 82.16,101.53 C86.41,99.01 85.91,95.88 85.91,95.88 C85.91,95.88 90.29,96.89 92.52,94.92 C94.75,92.95 95.74,88.22 95.74,88.22 C95.74,88.22 98.69,89.56 101.19,87.33 C103.69,85.1 105.59,82.08 102.94,77.96 C100.29,73.84 89.51,60.86 86.71,57.22 C83.91,53.58 76.71,32.82 69.78,30.75 C62.85,28.68 56.01,29.21 48.77,31.35 C41.53,33.49 34.76,33.29 26.72,31.01 C18.68,28.73 10.1,23.35 10.1,23.35 Z" fill="#E0BB95"/>
  <path d="M123.31,41 C121.83,31.15 119.88,24.45 118.43,22.83 C116.77,20.99 113.92,24.65 107.89,26.79 C101.86,28.93 91,29.74 91,29.74 C91,29.74 73.53,29.23 66.99,31.43 C64.53,32.25 40.26,42.48 39.53,46.77 C39.22,48.59 41.24,52.66 46.26,53.07 C54.41,53.74 64.6,46.64 64.6,46.64 C64.72,46.44 65.93,46.1 71.5,46.1 C77.07,46.1 83.54,49.75 83.95,50.43 C88.11,57.28 92.06,62.08 95.87,66.72 C98.66,70.11 105.22,79.08 105.22,79.08 C105.22,79.08 112.59,70.37 114.47,68.36 C116.35,66.35 123.32,61.26 123.32,61.26 C123.32,61.26 124.86,51.3 123.31,41 Z" fill="#70534A"/>
  <path d="M26.59,85.83 C26.59,85.83 23.93,86.77 21.5,83.28 C19.07,79.79 21.1,77.39 23.58,75.44 C26.06,73.49 29.34,72.55 31.29,74.03 C33.23,75.5 34.04,78.05 34.04,78.05 C34.04,78.05 38.06,74.77 41.68,76.78 C45.3,78.79 45.07,82.45 45.07,82.45 C45.07,82.45 48.58,80.32 52.27,82.45 C55.96,84.58 54.15,90.72 54.15,90.72 C54.15,90.72 58.44,90.85 59.24,95.08 C60.04,99.3 59.04,103.79 54.21,104.6 C49.39,105.4 46.57,100.88 46.57,100.88 C46.57,100.88 41.75,103.79 38.19,101.39 C34.63,98.99 35.04,93.95 35.04,93.95 C35.04,93.95 30.69,94.67 28.24,92.39 C25.79,90.11 26.59,85.83 26.59,85.83 Z" fill="#70534A"/>
  <path d="M78.35,103.68 C77.39,103.68 76.45,103.53 75.57,103.22 C73.31,102.43 64.56,95.77 63.06,93.46 C62.63,92.79 62.82,91.9 63.48,91.47 C64.15,91.04 65.04,91.23 65.47,91.89 C66.51,93.49 74.67,99.85 76.52,100.5 C78.18,101.08 80.31,100.78 81.93,99.74 C82.96,99.07 84.24,97.81 84.43,95.6 C84.5,94.81 85.2,94.22 85.99,94.29 C86.78,94.36 87.37,95.06 87.3,95.85 C87.07,98.48 85.72,100.72 83.5,102.16 C81.96,103.16 80.13,103.68 78.35,103.68 Z" fill="#AA7D55"/>
  <path d="M88.84,97.16 C86.87,97.16 84.75,96.54 82.19,95.23 C79.04,93.63 74.89,89.52 71.86,86.53 C71.25,85.93 70.7,85.38 70.23,84.93 C69.66,84.38 69.64,83.47 70.19,82.89 C70.74,82.31 71.65,82.3 72.23,82.85 C72.71,83.31 73.27,83.86 73.89,84.48 C76.62,87.18 80.75,91.26 83.5,92.66 C86.97,94.43 88.75,94.41 90.05,94.16 C92.43,93.69 93.91,91.46 93.9,88.32 C93.9,87.52 94.54,86.88 95.34,86.88 C95.34,86.88 95.34,86.88 95.34,86.88 C96.13,86.88 96.78,87.52 96.78,88.32 C96.79,92.85 94.36,96.26 90.6,97 C90.02,97.11 89.43,97.16 88.84,97.16 Z" fill="#AA7D55"/>
  <path d="M97.11,90.09 C96.34,90.09 95.56,89.96 94.81,89.67 C90.76,88.09 85.36,83.11 78.3,74.44 C77.8,73.82 77.89,72.91 78.51,72.41 C79.13,71.91 80.04,72 80.54,72.62 C87.18,80.78 92.33,85.61 95.86,86.98 C97.63,87.67 100.26,86.67 101.84,84.71 C102.58,83.79 103.64,81.96 102.36,80.01 C99.53,75.7 96.67,72.22 93.64,68.54 C89.76,63.82 85.75,58.94 81.48,51.92 C81.07,51.24 81.28,50.35 81.96,49.94 C82.64,49.53 83.53,49.74 83.94,50.42 C88.1,57.27 92.05,62.07 95.86,66.71 C98.94,70.45 101.84,73.99 104.76,78.43 C106.41,80.93 106.15,83.96 104.07,86.53 C102.47,88.5 99.8,90.09 97.11,90.09 Z" fill="#AA7D55"/>
  <path d="M104.63,78.24 L103.16,76.08 C104.28,76.68 106.83,76.22 110.06,71.67 C112.11,68.78 115.94,62.95 123.22,59.92 C123.22,59.92 123.77,62.68 122.13,63.8 C117.19,67.2 114.08,70.98 112.41,73.34 C109.67,77.21 107.15,79.53 105.71,80.69 C105.71,80.69 105.53,79.53 104.63,78.24 Z" fill="#3B251F"/>
  <path d="M68.22,106.68 C64.63,106.68 61.16,104.8 59.41,103.85 C59.12,103.69 58.87,103.56 58.66,103.45 L60.79,98.59 C60.79,98.59 61.31,101.49 63.51,102.63 C67.13,104.52 70.38,104.79 73.02,101.29 L75.32,103.03 C73.25,105.78 70.7,106.68 68.22,106.68 Z" fill="#AA7D55"/>
  <path d="M20.67,77.56 C17.37,74.08 13.32,70.78 8.86,67.9 C8.64,67.76 7.43,66.98 6.84,65.93 C5.92,64.3 6.14,62.91 6.14,62.91 C12.47,66.43 18.27,70.84 22.76,75.58 L20.67,77.56 Z" fill="#AA7D55"/>
  <path d="M39.59,34.35 C27.73,34.35 16.78,29.81 8.91,24.53 C8.91,24.53 9.32,23.7 10.1,23.35 C11.19,22.86 12.03,23.13 12.15,23.2 C19.46,27.74 29.15,31.46 39.58,31.46 C39.6,31.46 39.62,31.46 39.65,31.46 C42.64,31.46 46.66,30.26 49.06,29.55 C49.51,29.42 49.91,29.3 50.26,29.2 C56.16,27.53 62.51,27.55 71.49,29.25 L70.95,32.08 C62.44,30.47 56.48,30.44 51.04,31.97 C50.71,32.06 50.32,32.18 49.88,32.31 C47.33,33.07 43.06,34.34 39.66,34.34 C39.64,34.35 39.61,34.35 39.59,34.35 Z" fill="#AA7D55"/>
  <path d="M99.62,58.85 C99.56,58.85 99.51,58.85 99.45,58.84 C88.87,57.61 83.56,53.51 80.05,50.8 C78.32,49.47 76.96,48.41 75.66,48.22 C71.98,47.66 68.34,47.26 64.42,48.4 C64.05,48.51 62.95,49.03 61.77,49.59 C58.16,51.3 52.71,53.89 48.7,54.31 C45.58,54.64 42.79,53.85 40.84,52.1 C39.26,50.68 38.36,48.72 38.36,46.72 C38.36,43.21 42.8,41.14 45.73,39.78 C47.34,39.03 49.53,37.8 51.84,36.5 C55.88,34.23 60.46,31.65 63.82,30.59 C69.34,28.85 83.89,28.33 88.55,28.28 C99,28.18 107.59,25.25 114.12,21.89 C114.39,21.75 115.58,21.13 116.62,21.39 C118.07,21.75 118.43,22.84 118.43,22.84 C111.3,27.09 101.56,31.05 88.59,31.18 C82.87,31.23 69.51,31.84 64.71,33.35 C61.63,34.32 57.19,36.82 53.27,39.03 C50.91,40.36 48.68,41.62 46.96,42.41 C45.25,43.2 41.25,45.06 41.25,46.74 C41.25,47.92 41.81,49.1 42.77,49.98 C44.1,51.18 46.11,51.71 48.4,51.47 C51.92,51.1 57.31,48.54 60.54,47.01 C62.17,46.23 63.05,45.82 63.62,45.66 C68.47,44.24 73.06,44.93 76.09,45.39 C78.12,45.7 79.83,47.02 81.81,48.54 C85.27,51.21 90,54.86 99.79,56 C100.58,56.09 101.15,56.81 101.06,57.6 C100.97,58.31 100.35,58.85 99.62,58.85 Z" fill="#3B251F"/>
  <path d="M60.29,101.26 C61.51,99 61.81,96.4 61.01,94.26 C60.43,92.7 59.04,90.74 55.8,89.79 C55.83,89.73 55.86,89.68 55.89,89.63 L55.8,89.58 C56.23,88.27 56.33,87.02 56.13,85.52 C55.81,83.16 54.45,81.39 52.3,80.56 C50.48,79.85 48.28,79.91 46.52,80.63 C46.33,78.58 45.35,77.12 43.46,75.97 C39.68,73.67 36.86,75.17 35.13,76.17 C34.36,73.96 32.45,72.87 31.24,72.38 C29.8,71.8 26.28,71.05 22.09,74.79 L24.23,76.75 C27.12,74.29 29.28,74.69 30.17,75.05 C32.47,75.97 32.39,77.68 32.38,78.47 C32.37,79.25 32.25,80.08 30.34,81.85 C27.98,84.04 26.31,84.05 26.31,84.05 C24.62,84.25 23.11,82.97 22.42,81.7 C22.18,81.25 21.47,79.71 22.41,78.6 C22.63,78.35 23.08,77.65 24.61,76.45 L22.5,74.45 C21.58,75.21 20.43,76.49 20.21,76.74 C18.8,78.4 18.68,80.83 19.89,83.07 C20.89,84.94 22.91,86.7 25.38,86.94 C25.2,89.34 26.05,91.56 27.86,93.31 C29.8,95.19 32.21,95.39 33.89,95.24 C33.91,96.92 34.28,99.28 35.92,100.97 C39.18,104.32 43.25,103.47 45.89,102.06 C46.84,103.99 48.55,105.37 50.72,105.88 C51.33,106.02 51.95,106.09 52.56,106.09 C54.84,106.09 57.79,106.09 60.69,100.42 C59.79,99.86 58.93,99.42 58.17,98.97 C55.96,103.35 53.03,103.46 51.37,103.07 C49.86,102.71 48.75,101.69 48.24,100.22 C50.65,97.52 52.35,95.39 54.24,92.38 C56.38,92.83 57.75,93.8 58.3,95.28 C58.78,96.57 58.59,98.23 57.85,99.71 L60.29,101.26 Z M34.97,92.08 C34.94,92.09 31.86,93.15 29.86,91.22 C28.53,89.93 28.01,88.37 28.32,86.59 C31.94,84.02 35.07,80 35.72,79.13 C35.95,79.01 39.02,76.58 41.96,78.42 C43.32,79.27 43.87,81.23 43.59,82.61 C43.31,83.99 42.67,85.66 40.03,88.48 C37.45,91.23 34.97,92.08 34.97,92.08 Z M52.74,89.51 C52.07,90.83 49.99,95.21 45.67,98.77 C45.18,99.17 41.05,102.07 37.99,98.93 C36.89,97.8 36.72,95.86 36.78,94.6 C38.83,92.99 42.91,89.39 46.07,84.24 C47.3,82.85 49.69,82.62 51.26,83.23 C52.42,83.68 53.1,84.57 53.27,85.89 C53.44,87.11 53.41,88.19 52.74,89.51 Z" fill="#3B251F"/>
  <path d="M92.67,62.79 C92.67,62.79 91.87,60.68 93.21,59.49 C94.78,58.09 96.54,58.59 97.76,58.61 C97.76,58.61 95.39,57.99 92.37,56.78 C88.62,55.27 86.04,53.4 86.04,53.4 C86.04,53.4 86.71,54.74 88.79,57.89 C90.86,61.04 92.67,62.79 92.67,62.79 Z" fill="#3B251F"/>
</svg>
